public/themes/EC/images/location.svg

<?xml version="1.0" encoding="UTF-8"?>
<svg width="96px" height="130px" viewBox="0 0 96 130" version="1.1" xmlns="http://www.w3.org/2000/svg" xmlns:xlink="http://www.w3.org/1999/xlink">
    <!-- Generator: Sketch 61 (89581) - https://sketch.com -->
    <title>iconfinder_lock__private__pin__3588976</title>
    <desc>Created with Sketch.</desc>
    <g id="Page-1" stroke="none" stroke-width="1" fill="none" fill-rule="evenodd">
        <g id="iconfinder_lock__private__pin__3588976" fill="#000000" fill-rule="nonzero">
            <path d="M47.3212891,129.734375 C47.5126953,129.911621 47.7563477,130 48,130 C48.2436523,130 48.4873047,129.911621 48.6787109,129.734375 C49.1445312,129.304199 95.243164,86.2514648 95.243164,47.2431641 C95.243164,21.1933594 74.0498047,0 48,0 C21.9501953,0 0.7568359,21.1933594 0.7568359,47.2431641 C0.7568359,86.2514648 46.8554688,129.304199 47.3212891,129.734375 Z M2.7568359,47.2431641 C2.7568359,22.2958984 23.0527344,2 48,2 C72.9472656,2 93.2431641,22.2958984 93.2431641,47.2431641 C93.2431641,67.1176758 80.788086,88.0610352 70.3398438,102.130371 C60.5473633,115.316406 50.6391602,125.091309 48,127.622559 C45.3608398,125.091309 35.4526367,115.316406 25.6601562,102.130371 C15.2119141,88.0610352 2.7568359,67.1176758 2.7568359,47.2431641 Z" id="Shape"></path>
            <path d="M81.421875,47.0605469 C81.421875,28.6220703 66.4213867,13.6215821 47.9829102,13.6215821 C29.5634766,13.6215821 14.578125,28.6220704 14.578125,47.0605469 C14.578125,65.4799805 29.5634766,80.4653321 47.9829102,80.4653321 C66.4213867,80.4653321 81.421875,65.4799805 81.421875,47.0605469 Z M16.578125,47.0605469 C16.578125,29.7250977 30.6660156,15.6215821 47.9829102,15.6215821 C65.3183594,15.6215821 79.421875,29.7250977 79.421875,47.0605469 C79.421875,64.3774414 65.3183594,78.4653321 47.9829102,78.4653321 C30.6660156,78.4653321 16.578125,64.3774414 16.578125,47.0605469 Z" id="Shape"></path>
        </g>
    </g>
</svg>

<svg width="96" height="130" viewBox="0 0 96 130" xmlns="http://www.w3.org/2000/svg"><title>iconfinder_lock__private__pin__3588976</title><path d="M47.321 129.734a.996.996 0 0 0 1.358 0c.466-.43 46.564-43.483 46.564-82.49C95.243 21.193 74.05 0 48 0S.757 21.193.757 47.243c0 39.008 46.098 82.061 46.564 82.491zM2.757 47.244C2.757 22.295 23.053 2 48 2c24.947 0 45.243 20.296 45.243 45.243 0 19.875-12.455 40.818-22.903 54.887-9.793 13.186-19.7 22.961-22.34 25.493-2.64-2.532-12.547-12.307-22.34-25.493C15.212 88.061 2.757 67.118 2.757 47.243z"/><path d="M81.422 47.06c0-18.438-15-33.438-33.44-33.438-18.419 0-33.404 15-33.404 33.439 0 18.419 14.985 33.404 33.405 33.404 18.438 0 33.439-14.985 33.439-33.404zm-64.844 0c0-17.335 14.088-31.438 31.405-31.438 17.335 0 31.439 14.103 31.439 31.439 0 17.316-14.104 31.404-31.44 31.404-17.316 0-31.404-14.088-31.404-31.404z"/></svg>
